X: 1
T: Farewell To Connaught - Liz Carroll's - Brendan's - The Limestone Rock
C:
M: 4/4
L: 1/8
R: reel
K: Dmix
P:A
|: D2 (3FED FGAB | c2cd cA ~G2 | Add^c d2 cd | ed^cd edcA |
D2 (3FED FGAB | c2 (3Bcd cA ~G2 | ABAG EGAB | cAGE ED ~D2 :|
|: eggf ~g2 ed | cded cA ~A2 | eaag ~a3g | eaag edcd |
eggf ~g2 ed | cded dAAG | ABAG EGAB | cAGE ED ~D2 :|
P:B
K: Dmaj
|:D2 (3DDD ADFG|A2FA dfed|Bg~g2 gfed|c/B/A ed cAGE|
D2 (3DDD ADFG|A2FA dfed|cAAB cAed|1cAGE ~F3E:|2cAGE FABc||
|:dfbf afeg|~f3d eABc|dfbf afeg|fedB cdeg|
~f3e de f/e/d|eAAA ABcA|B2GF GBdB|1AFEG FABc:|2AFEG F3E||
P:C
K: Edor
GEE2 dBBA|B2ED EFGA|BEEE d3e|dAAA FAAA|
GEE2 dBBA|B2ED EFGA|B2dB AFDF|FEED EEEF:|
E2GB eBB2|gBB2 eBB2|D2FA dfec|dBAF FEED|
E2GB eBB2|g3B eBB2|D2FA dBAF|FEED E2EF:|
P:D
K: Gmaj
dc | BG G2 AGFG | DG G2 A2 dc | BG G2 AGAB | cABG A2 dc|
BG G2 AGFG | DGG2 A2 dc | BG G2 AGAB | cABG A2 Bd |
e2 dg e2 dg | e2 dB A2 Bd | eB B2 gB B2 | cABG A2 Bd |
e2 ed ea a2| gedB AcBA | G2 Bd g2 gb | agef gedc |

